static/files/images/bk-slick2.svg

<svg width="750" height="1330" viewBox="0 0 750 1330" version="1.1" xmlns="http://www.w3.org/2000/svg" xmlns:xlink="http://www.w3.org/1999/xlink">
<title>Group 16</title>
<desc>Created using Figma</desc>
<g id="Canvas" transform="matrix(2 0 0 2 -13140 1024)">
<g id="Group 16">
<g id="Rectangle">
<use xlink:href="#path0_fill" transform="translate(6570 -512)" fill="url(#paint0_linear)"/>
</g>
<g id="Vector">
<use xlink:href="#path1_stroke" transform="matrix(6.13485e-17 -1 1 6.11164e-17 6881.52 40.6522)" fill="#FFFFFF" fill-opacity="0.2"/>
</g>
<g id="Vector">
<use xlink:href="#path1_stroke" transform="matrix(6.13485e-17 -1 1 6.11164e-17 6905.64 -4.48276)" fill="#FFFFFF" fill-opacity="0.2"/>
</g>
<g id="Vector">
<use xlink:href="#path2_stroke" transform="matrix(6.13485e-17 -1 1 6.11164e-17 6929.75 34.6342)" fill="#FFFFFF" fill-opacity="0.2"/>
</g>
<g id="Group">
<g id="Rectangle 5">
<use xlink:href="#path3_fill" transform="translate(6858 42.9423)" fill="url(#paint4_linear)"/>
</g>
<mask id="mask0_alpha" mask-type="alpha">
<g id="Ellipse">
<use xlink:href="#path4_fill" transform="translate(6858 35)" fill="url(#paint5_linear)"/>
</g>
</mask>
<g id="Ellipse" mask="url(#mask0_alpha)">
<use xlink:href="#path4_fill" transform="translate(6858 35)" fill="url(#paint6_linear)"/>
</g>
</g>
<g id="Ellipse 2">
<use xlink:href="#path5_fill" transform="translate(6632.3 -217.056)" fill="#3849D6" fill-opacity="0.5"/>
</g>
<g id="Ellipse 2">
<use xlink:href="#path6_fill" transform="translate(6756.08 -304.379)" fill="#FFFFFF" fill-opacity="0.05"/>
</g>
</g>
</g>
<defs>
<linearGradient id="paint0_linear" x1="0" y1="0" x2="1" y2="0" gradientUnits="userSpaceOnUse" gradientTransform="matrix(-383.789 -649.325 366.161 -2275.66 197.633 1802.83)">
<stop offset="0" stop-color="#495CF2"/>
<stop offset="1" stop-color="#2438D6" stop-opacity="0.9"/>
</linearGradient>
<linearGradient id="paint4_linear" x1="0" y1="0" x2="1" y2="0" gradientUnits="userSpaceOnUse" gradientTransform="matrix(-147.451 -54.4615 59.8759 -190.155 91.0612 170.529)">
<stop offset="0" stop-color="#C5D1DE"/>
<stop offset="0.524862" stop-color="#FFFFFF"/>
<stop offset="0.856917" stop-color="#E5E5E5"/>
</linearGradient>
<linearGradient id="paint5_linear" x1="0" y1="0" x2="1" y2="0" gradientUnits="userSpaceOnUse" gradientTransform="matrix(-107.642 -22.0394 162.093 -278.028 15.8575 158.26)">
<stop offset="0" stop-color="#4D341E"/>
<stop offset="1" stop-color="#704E2E"/>
</linearGradient>
<linearGradient id="paint6_linear" x1="0" y1="0" x2="1" y2="0" gradientUnits="userSpaceOnUse" gradientTransform="matrix(-107.642 -22.0394 162.093 -278.028 15.8575 158.26)">
<stop offset="0" stop-color="#F37110"/>
<stop offset="1" stop-color="#F0C19E"/>
</linearGradient>
<path id="path0_fill" d="M 0 0L 375 0L 375 665L 0 665L 0 0Z"/>
<path id="path1_stroke" d="M 0 0.5C 1.78578 0.5 2.66022 1.36325 3.65811 2.36302C 4.66622 3.37305 5.79778 4.51961 8.02399 4.51961L 8.02399 3.51961C 6.23821 3.51961 5.36377 2.65636 4.36588 1.65659C 3.35777 0.646559 2.22621 -0.5 0 -0.5L 0 0.5ZM 8.02399 4.51961C 10.2502 4.51961 11.3818 3.37305 12.3899 2.36302C 13.3878 1.36325 14.2622 0.5 16.048 0.5L 16.048 -0.5C 13.8218 -0.5 12.6902 0.646559 11.6821 1.65659C 10.6842 2.65636 9.80977 3.51961 8.02399 3.51961L 8.02399 4.51961ZM 16.048 0.5C 17.8338 0.5 18.7082 1.36325 19.7061 2.36302C 20.7142 3.37305 21.8458 4.51961 24.072 4.51961L 24.072 3.51961C 22.2862 3.51961 21.4117 2.65636 20.4139 1.65659C 19.4057 0.646559 18.2742 -0.5 16.048 -0.5L 16.048 0.5ZM 24.072 4.51961C 26.2982 4.51961 27.4297 3.37305 28.4378 2.36302C 29.4357 1.36325 30.3102 0.5 32.096 0.5L 32.096 -0.5C 29.8697 -0.5 28.7382 0.646559 27.7301 1.65659C 26.7322 2.65636 25.8577 3.51961 24.072 3.51961L 24.072 4.51961ZM 32.096 0.5C 33.8817 0.5 34.7562 1.36325 35.7541 2.36302C 36.7622 3.37305 37.8937 4.51961 40.1199 4.51961L 40.1199 3.51961C 38.3342 3.51961 37.4597 2.65636 36.4618 1.65659C 35.4537 0.646559 34.3222 -0.5 32.096 -0.5L 32.096 0.5ZM 40.1199 4.51961C 42.3462 4.51961 43.4777 3.37305 44.4858 2.36302C 45.4837 1.36325 46.3581 0.5 48.1439 0.5L 48.1439 -0.5C 45.9177 -0.5 44.7862 0.646559 43.778 1.65659C 42.7802 2.65636 41.9057 3.51961 40.1199 3.51961L 40.1199 4.51961ZM 48.1439 0.5C 49.9297 0.5 50.8042 1.36325 51.802 2.36302C 52.8101 3.37305 53.9417 4.51961 56.1679 4.51961L 56.1679 3.51961C 54.3821 3.51961 53.5077 2.65636 52.5098 1.65659C 51.5017 0.646559 50.3701 -0.5 48.1439 -0.5L 48.1439 0.5Z"/>
<path id="path2_stroke" d="M 0 0.5C 2.93347 0.5 4.37318 1.44025 5.88808 2.42857C 7.45382 3.45005 9.09475 4.51961 12.3226 4.51961L 12.3226 3.51961C 9.38908 3.51961 7.94938 2.57936 6.43448 1.59104C 4.86874 0.569556 3.2278 -0.5 0 -0.5L 0 0.5ZM 12.3226 4.51961C 15.5504 4.51961 17.1913 3.45005 18.757 2.42857C 20.2719 1.44025 21.7116 0.5 24.6451 0.5L 24.6451 -0.5C 21.4173 -0.5 19.7764 0.569556 18.2106 1.59104C 16.6957 2.57936 15.256 3.51961 12.3226 3.51961L 12.3226 4.51961ZM 24.6451 0.5C 27.5786 0.5 29.0183 1.44025 30.5332 2.42857C 32.0989 3.45005 33.7399 4.51961 36.9677 4.51961L 36.9677 3.51961C 34.0342 3.51961 32.5945 2.57936 31.0796 1.59104C 29.5138 0.569556 27.8729 -0.5 24.6451 -0.5L 24.6451 0.5ZM 36.9677 4.51961C 40.1955 4.51961 41.8364 3.45005 43.4021 2.42857C 44.917 1.44025 46.3567 0.5 49.2902 0.5L 49.2902 -0.5C 46.0624 -0.5 44.4215 0.569556 42.8557 1.59104C 41.3408 2.57936 39.9011 3.51961 36.9677 3.51961L 36.9677 4.51961ZM 49.2902 0.5C 52.2237 0.5 53.6634 1.44025 55.1783 2.42857C 56.744 3.45005 58.385 4.51961 61.6128 4.51961L 61.6128 3.51961C 58.6793 3.51961 57.2396 2.57936 55.7247 1.59104C 54.159 0.569556 52.518 -0.5 49.2902 -0.5L 49.2902 0.5ZM 61.6128 4.51961C 64.8406 4.51961 66.4815 3.45005 68.0472 2.42857C 69.5621 1.44025 71.0019 0.5 73.9353 0.5L 73.9353 -0.5C 70.7075 -0.5 69.0666 0.569556 67.5008 1.59104C 65.9859 2.57936 64.5462 3.51961 61.6128 3.51961L 61.6128 4.51961ZM 73.9353 0.5C 76.8688 0.5 78.3085 1.44025 79.8234 2.42857C 81.3891 3.45005 83.0301 4.51961 86.2579 4.51961L 86.2579 3.51961C 83.3244 3.51961 81.8847 2.57936 80.3698 1.59104C 78.8041 0.569556 77.1631 -0.5 73.9353 -0.5L 73.9353 0.5Z"/>
<path id="path3_fill" d="M 0 0L 120.999 0L 120.999 100.058C 120.999 105.581 116.522 110.058 110.999 110.058L 10 110.058C 4.47715 110.058 0 105.581 0 100.058L 0 0Z"/>
<path id="path4_fill" d="M 120.999 8.22596C 120.999 12.769 93.9126 16.4519 60.4996 16.4519C 27.0866 16.4519 0 12.769 0 8.22596C 0 3.68289 27.0866 0 60.4996 0C 93.9126 0 120.999 3.68289 120.999 8.22596Z"/>
<path id="path5_fill" d="M 233.244 116.317C 233.244 180.557 181.03 232.634 116.622 232.634C 52.2134 232.634 0 180.557 0 116.317C 0 52.0768 52.2134 0 116.622 0C 181.03 0 233.244 52.0768 233.244 116.317Z"/>
<path id="path6_fill" d="M 205.834 102.673C 205.834 159.377 159.756 205.345 102.917 205.345C 46.0775 205.345 0 159.377 0 102.673C 0 45.9681 46.0775 0 102.917 0C 159.756 0 205.834 45.9681 205.834 102.673Z"/>
</defs>
</svg>

<?xml version="1.0" encoding="UTF-8"?>
<svg version="1.1" viewBox="0 0 750 1330" xmlns="http://www.w3.org/2000/svg" xmlns:xlink="http://www.w3.org/1999/xlink">
<g transform="matrix(2 0 0 2 -13140 1024)">
<use transform="translate(6570 -512)" fill="url(#k)" xlink:href="#g"/>
<use transform="matrix(6.1348e-17 -1 1 6.1116e-17 6881.5 40.652)" fill="#FFFFFF" fill-opacity=".2" xlink:href="#b"/>
<use transform="matrix(6.1348e-17 -1 1 6.1116e-17 6905.6 -4.4828)" fill="#FFFFFF" fill-opacity=".2" xlink:href="#b"/>
<use transform="matrix(6.1348e-17 -1 1 6.1116e-17 6929.8 34.634)" fill="#FFFFFF" fill-opacity=".2" xlink:href="#f"/>
<use transform="translate(6858 42.942)" fill="url(#j)" xlink:href="#e"/>
<mask id="l" mask-type="alpha">
<use transform="translate(6858 35)" fill="url(#i)" xlink:href="#a"/>
</mask>
<g mask="url(#l)">
<use transform="translate(6858 35)" fill="url(#h)" xlink:href="#a"/>
</g>
<use transform="translate(6632.3 -217.06)" fill="#3849D6" fill-opacity=".5" xlink:href="#d"/>
<use transform="translate(6756.1 -304.38)" fill="#FFFFFF" fill-opacity=".05" xlink:href="#c"/>
</g>
<defs>
<linearGradient id="k" x2="1" gradientTransform="matrix(-383.79 -649.32 366.16 -2275.7 197.63 1802.8)" gradientUnits="userSpaceOnUse">
<stop stop-color="#495CF2" offset="0"/>
<stop stop-color="#2438D6" stop-opacity=".9" offset="1"/>
</linearGradient>
<linearGradient id="j" x2="1" gradientTransform="matrix(-147.45 -54.462 59.876 -190.16 91.061 170.53)" gradientUnits="userSpaceOnUse">
<stop stop-color="#C5D1DE" offset="0"/>
<stop stop-color="#fff" offset=".52486"/>
<stop stop-color="#E5E5E5" offset=".85692"/>
</linearGradient>
<linearGradient id="i" x2="1" gradientTransform="matrix(-107.64 -22.039 162.09 -278.03 15.858 158.26)" gradientUnits="userSpaceOnUse">
<stop stop-color="#4D341E" offset="0"/>
<stop stop-color="#704E2E" offset="1"/>
</linearGradient>
<linearGradient id="h" x2="1" gradientTransform="matrix(-107.64 -22.039 162.09 -278.03 15.858 158.26)" gradientUnits="userSpaceOnUse">
<stop stop-color="#F37110" offset="0"/>
<stop stop-color="#F0C19E" offset="1"/>
</linearGradient>
<path id="g" d="m0 0h375v665h-375v-665z"/>
<path id="b" d="m0 0.5c1.7858 0 2.6602 0.86325 3.6581 1.863 1.0081 1.01 2.1397 2.1566 4.3659 2.1566v-1c-1.7858 0-2.6602-0.86325-3.6581-1.863-1.0081-1.01-2.1397-2.1566-4.3659-2.1566v1zm8.024 4.0196c2.2262 0 3.3578-1.1466 4.3659-2.1566 0.9979-0.99977 1.8723-1.863 3.6581-1.863v-1c-2.2262 0-3.3578 1.1466-4.3659 2.1566-0.9979 0.99977-1.8723 1.863-3.6581 1.863v1zm8.024-4.0196c1.7858 0 2.6602 0.86325 3.6581 1.863 1.0081 1.01 2.1397 2.1566 4.3659 2.1566v-1c-1.7858 0-2.6603-0.86325-3.6581-1.863-1.0082-1.01-2.1397-2.1566-4.3659-2.1566v1zm8.024 4.0196c2.2262 0 3.3577-1.1466 4.3658-2.1566 0.9979-0.99977 1.8724-1.863 3.6582-1.863v-1c-2.2263 0-3.3578 1.1466-4.3659 2.1566-0.9979 0.99977-1.8724 1.863-3.6581 1.863v1zm8.024-4.0196c1.7857 0 2.6602 0.86325 3.6581 1.863 1.0081 1.01 2.1396 2.1566 4.3658 2.1566v-1c-1.7857 0-2.6602-0.86325-3.6581-1.863-1.0081-1.01-2.1396-2.1566-4.3658-2.1566v1zm8.0239 4.0196c2.2263 0 3.3578-1.1466 4.3659-2.1566 0.9979-0.99977 1.8723-1.863 3.6581-1.863v-1c-2.2262 0-3.3577 1.1466-4.3659 2.1566-0.9978 0.99977-1.8723 1.863-3.6581 1.863v1zm8.024-4.0196c1.7858 0 2.6603 0.86325 3.6581 1.863 1.0081 1.01 2.1397 2.1566 4.3659 2.1566v-1c-1.7858 0-2.6602-0.86325-3.6581-1.863-1.0081-1.01-2.1397-2.1566-4.3659-2.1566v1z"/>
<path id="f" d="m0 0.5c2.9335 0 4.3732 0.94025 5.8881 1.9286 1.5657 1.0215 3.2067 2.091 6.4345 2.091v-1c-2.9335 0-4.3732-0.94025-5.8881-1.9286-1.5657-1.0215-3.2067-2.091-6.4345-2.091v1zm12.323 4.0196c3.2278 0 4.8687-1.0696 6.4344-2.091 1.5149-0.98832 2.9546-1.9286 5.8881-1.9286v-1c-3.2278 0-4.8687 1.0696-6.4345 2.091-1.5149 0.98832-2.9546 1.9286-5.888 1.9286v1zm12.322-4.0196c2.9335 0 4.3732 0.94025 5.8881 1.9286 1.5657 1.0215 3.2067 2.091 6.4345 2.091v-1c-2.9335 0-4.3732-0.94025-5.8881-1.9286-1.5658-1.0215-3.2067-2.091-6.4345-2.091v1zm12.323 4.0196c3.2278 0 4.8687-1.0696 6.4344-2.091 1.5149-0.98832 2.9546-1.9286 5.8881-1.9286v-1c-3.2278 0-4.8687 1.0696-6.4345 2.091-1.5149 0.98832-2.9546 1.9286-5.888 1.9286v1zm12.322-4.0196c2.9335 0 4.3732 0.94025 5.8881 1.9286 1.5657 1.0215 3.2067 2.091 6.4345 2.091v-1c-2.9335 0-4.3732-0.94025-5.8881-1.9286-1.5657-1.0215-3.2067-2.091-6.4345-2.091v1zm12.323 4.0196c3.2278 0 4.8687-1.0696 6.4344-2.091 1.5149-0.98832 2.9547-1.9286 5.8881-1.9286v-1c-3.2278 0-4.8687 1.0696-6.4345 2.091-1.5149 0.98832-2.9546 1.9286-5.888 1.9286v1zm12.322-4.0196c2.9335 0 4.3732 0.94025 5.8881 1.9286 1.5657 1.0215 3.2067 2.091 6.4345 2.091v-1c-2.9335 0-4.3732-0.94025-5.8881-1.9286-1.5657-1.0215-3.2067-2.091-6.4345-2.091v1z"/>
<path id="e" d="m0 0h121v100.06c0 5.523-4.477 10-10 10h-101c-5.5228 0-10-4.477-10-10v-100.06z"/>
<path id="a" d="m121 8.226c0 4.543-27.086 8.2259-60.499 8.2259s-60.5-3.6829-60.5-8.2259c0-4.5431 27.087-8.226 60.5-8.226s60.499 3.6829 60.499 8.226z"/>
<path id="d" d="m233.24 116.32c0 64.24-52.214 116.32-116.62 116.32-64.409 0-116.62-52.077-116.62-116.32 0-64.24 52.213-116.32 116.62-116.32 64.408 0 116.62 52.077 116.62 116.32z"/>
<path id="c" d="m205.83 102.67c0 56.704-46.078 102.67-102.92 102.67-56.84 0-102.92-45.968-102.92-102.67 0-56.705 46.078-102.67 102.92-102.67 56.839 0 102.92 45.968 102.92 102.67z"/>
</defs>
</svg>
